**kern	**kern	**kern	**kern	**dynam
*part4	*part3	*part2	*part1	*part1
*staff4	*staff3	*staff2	*staff1	*
*I"Cello	*I"Viola	*I"2nd Violin	*I"1st Violin	*
*clefF4	*clefC3	*clefG2	*clefG2	*
*k[]	*k[]	*k[]	*k[]	*
*C:	*C:	*C:	*C:	*
*M2/2	*M2/2	*M2/2	*M2/2	*
*met(c|)	*met(c|)	*met(c|)	*met(c|)	*
=1	=1	=1	=1	=1
!	!	!	!LO:TX:a:t=INTERMEZZO	!
[1C	(2c	(2g	(2ee	.
.	2c#X	2b-X	[2gg	.
=2	=2	=2	=2	=2
2C]	2d	2a	4gg]	.
.	.	.	4ff#X	.
2r	2B)	2a-X)	4dd	.
.	.	.	4ffn)	.
=3	=3	=3	=3	=3
[1C	(2c	(2g	(2ee	.
.	2c#X	2b-X	[2gg	.
=4	=4	=4	=4	=4
2C]	2d	2a	4gg]	.
.	.	.	4ff#X	.
2r	2B)	2a-X	4dd	.
.	.	.	[4ffn)	.
=5	=5	=5	=5	=5
[1C	(2c	2g)	(4ff]	.
.	.	.	4ee	.
.	2B-X	(2g	4cc	.
.	.	.	[4ee	.
=6	=6	=6	=6	=6
1C_	2A	2f#X	4ee]	.
.	.	.	4dd	>
.	2A-X	2fn	4b	.
.	.	.	[4dd)	.
=7	=7	=7	=7	=7
!	!	!	!	!
1C_	2G	2e	(4dd]	.
.	.	.	4cc	.
.	2F#X	2e-X	4b	.
.	.	.	4a)	.
=8	=8	=8	=8	=8
1C]	2F	2d	(4a	.
.	.	.	4g	]
.	2D)	2B)	4f#X	.
.	.	.	4fn)	.
=9	=9	=9	=9	=9
*^	*	*	*	*
[1CC	(2C	(2C	(2c	(2e	.
.	2C#X	2B-X	[2g	[2g	.
=10	=10	=10	=10	=10	=10
1CC]	2D	2A	4g]	4g]	.
.	.	.	4f#X	4f#X	.
.	2BB)	2A-X)	4d	4d	.
.	.	.	4fn)	4fn)	.
=11	=11	=11	=11	=11	=11
[1CC	(2C	(2G	(2e	(2e	.
.	2C#X	2B-X	[2g	[2g	.
=12	=12	=12	=12	=12	=12
1CC]	2D	2A	4g]	4g]	.
.	.	.	4f#X	4f#X	.
.	2BB)	2A-X)	4d	4d	.
.	.	.	4fn)	[4fn)	.
*v	*v	*	*	*	*
=13	=13	=13	=13	=13
!!linebreak:original
2CC 2C	(2G	(2G	(4f]	.
.	.	.	2e	.
(2C	2F#X	2A	.	.
.	.	.	[4e-X	.
=14	=14	=14	=14	=14
2BB	2G	2G	4e-]	.
.	.	.	2d	.
2C	2E	2A	.	.
.	.	.	[4c	.
=15	=15	=15	=15	=15
2D	2D	2G	4c]	.
.	.	.	2B	.
2DD	2F#X	2d	.	.
.	.	.	4A	.
=16	=16	=16	=16	=16
2GG)	2G)	2G)	2G)	.
2r	2r	2r	2r	.
=17:|!|:	=17:|!|:	=17:|!|:	=17:|!|:	=17:|!|:
[1G	(2d	(2b	(2gg	.
.	2f	2dd	[2bb	.
=18	=18	=18	=18	=18
2G]	2e	2cc#X	4bb]	.
.	.	.	4bb-X	.
2r	2e-X)	2ccn)	4ff#X	.
.	.	.	4aa)	]
=19	=19	=19	=19	=19
[1G	(2d	(2b	(2gg	.
.	2f	2dd	[2bb	.
=20	=20	=20	=20	=20
2G]	2e	2cc#X	4bb]	.
.	.	.	4bb-X	>
2r	2e-X)	2ccn)	4ff#X	.
.	.	.	4aa)	]
=21	=21	=21	=21	=21
[1G	(2d	(2b	(4gg	.
.	.	.	4aa	.
.	2d-X	2b-X	4ee	.
.	.	.	4gg	.
=22	=22	=22	=22	=22
1G_	2d	2a	4ffn	.
.	.	.	4gg	.
.	2B	2a-X	4dd	.
.	.	.	4ff)	.
=23	=23	=23	=23	=23
1G_	2c	2g	(4ff	.
.	.	.	4ee	.
.	2A	2f#X	4dd	.
.	.	.	4cc)	.
=24	=24	=24	=24	=24
(2G]	2G	2fn	(4ccM	.
.	.	.	4b	.
2F)	2B)	2d)	4a	.
.	.	.	4g)	.
=25	=25	=25	=25	=25
!!linebreak:original
(2E	(2c	2g	2g	.
2E-X	2G	(2g	([2gg	.
=26	=26	=26	=26	=26
2D	2A	2f#X	4gg]	.
.	.	.	4ff#X	.
2GG)	2B)	2fn	4dd	.
.	.	.	4ffn)	.
=27	=27	=27	=27	=27
(2D	(2G#X	2e)	2e	.
2C	[2A	(2e	([2ee	.
=28	=28	=28	=28	=28
2BB	2A]	2d#X	4ee]	.
.	.	.	4dd#X	.
2EE)	2G#X)	2dn	4b	.
.	.	.	4ddn)	.
=29	=29	=29	=29	=29
(2BB-X	(2E	2c)	2c	.
!LO:TX:b:i:t=dim	!LO:TX:b:i:t=dim	!LO:TX:b:i:t=dim	!LO:TX:b:i:t=dim	!
2AA	2F	(2c	([2cc	.
=30	=30	=30	=30	=30
2GG	2D	2B	4cc]	.
.	.	.	4b	.
2CC	2E	2B-X	4g	.
.	.	.	[4b-X	.
=31	=31	=31	=31	=31
2FF	2C	2A 2f	4b-]	.
.	.	.	2a	.
2GG	2F	2Bn 2dn	.	.
.	.	.	4g	.
=32	=32	=32	=32	=32
2C)	2E)	2c)	2c)	.
2r	2r	2r	2r	.
=33:|!	=33:|!	=33:|!	=33:|!	=33:|!
2C	2E	2c	2c	.
4r	4r	4r	4r	.
8r	8r	8r	8r	.
16AALL 16E	16cLL	16eLL	16eLL	.
16AAJJ 16E	16cJJ	16eJJ	16eJJ	.
=34||	=34||	=34||	=34||	=34||
*M6/8	*M6/8	*M6/8	*M6/8	*
8AA 8E	8c	8e	8e	.
8r	8r	8r	8r	.
8r	8r	8r	8r	.
4r	4r	4r	4r	.
!LO:TX:b:i:t=cresc.	!LO:TX:b:i:t=cresc.	!LO:TX:b:i:t=cresc.	!LO:TX:b:i:t=cresc.	!
16AALL 16E	16cLL	16eLL	16eLL	.
16AAJJ 16E	16cJJ	16eJJ	16eJJ	.
=35	=35	=35	=35	=35
8AA 8E	8c	8e	8e	.
8r	8r	8r	8r	.
8r	8r	8r	8r	.
4r	4r	4r	4r	.
16AALL 16E	16cLL	16eLL	16eLL	.
16AAJJ 16E	16cJJ	16eJJ	16eJJ	.
=36||	=36||	=36||	=36||	=36||
!!linebreak:original
8AA 8E	8cL	8eL	8eL	.
8r	8c	8e	8a	.
8r	8BJ	8eJ	8g#XJ	.
4r	8dL	8fL	8bL	.
!	!	!	!	!
.	8c	8e	8a	.
16AALL 16E	8fJ	8a-XJ	8ddJ	.
16AAJJ 16E	.	.	.	.
=37	=37	=37	=37	=37
8AA 8E	8eL	8aL	8ccL	.
8r	8g#X	8dd	8ff	.
8r	8aJ	8ccJ	8eeJ	.
4r	8fL	8g#XL	8ddL	.
.	8e	8a	8cc	.
16AALL 16E	8dJ	8fJ	8bJ	.
16AAJJ 16E	.	.	.	.
=38	=38	=38	=38	=38
8AAL 8E	8cL	8eL	8aL	.
8r	8c	8e	8cc	.
8AAJ 8E	8cJ	8eJ	8bJ	.
8DL	8dL	8fL	8aL	.
8r	8A	8d	8g	.
8DJ	8AJ	8dJ	8fJ	.
=39	=39	=39	=39	=39
8E	8G#X'L	8B'L	[4.e	.
8r	(8G#	(8B	.	.
8r	8AJ	8cJ	.	.
4r	8BL	8dL	4e]	.
.	8A	8c	.	.
16ELL	8G#J)	8BJ)	16eLL	.
16EJJ	.	.	16eJJ	.
=40	=40	=40	=40	=40
8AA 8E	8AL	8cL	8eL	.
4r	8c	8e	8a	.
.	8BJ	8eJ	8g#XJ	.
8r	8dL	8fL	8bL	.
8r	8c	8e	8a	.
16AALL 16E	8fJ	8a-XJ	8ddJ	.
16AAJJ 16E	.	.	.	.
=41	=41	=41	=41	=41
8AA 8E	8eL	8aL	8ccL	.
8r	8g#X	8dd	8ff	.
8r	8aJ	8ccJ	8eeJ	.
4r	8fL	8g#XL	8ddL	.
.	8e	8a	8cc	.
16AALL 16E	8dJ	8fJ	8bJ	.
16AAJJ 16E	.	.	.	.
=42	=42	=42	=42	=42
8AAL 8E	8cL	8eL	8aL	.
8r	8c	8e	8cc	.
8AAJ	8cJ	8eJ	8bJ	.
8DDL	8dL	8fL	8aL	.
8D	8A	8d	8g	.
8DDJ	8AJ	8dJ	8fJ	.
=43	=43	=43	=43	=43
8EEL	(8G#XL	(8BL	4e	.
8E	8A	8c	.	.
8EEJ	8BJ	8dJ	8e	.
8AA	8A)	8c)	4a	.
8r	8r	8r	.	.
16EELL	16G#LL	16eLL	16eLL	.
16EEJJ	16G#JJ	16eJJ	16eJJ	.
=44	=44	=44	=44	=44
!!linebreak:original
4.EE	8G#X'L	8e'L	4.ee	.
.	(8G#	(8e	.	.
.	8F#XJ)	8d#XJ)	.	.
4r	(8AL	(8f#XL	4r	.
.	8A-X)	8e)	.	.
16EELL	(8c#XJ	(8aJ	16eLL	.
16EEJJ	.	.	16eJJ	.
=45	=45	=45	=45	=45
4.EE	8BL)	8g#XL)	4.ee	.
.	(8e	(8cc#X	.	.
.	8d#XJ	8bJ	.	.
!	!	!	!	!
4r	8c#XL	8aL	4r	.
.	8B	8g#	.	.
16EELL	8AJ)	8f#XJ)	16eLL	.
16EEJJ	.	.	16eJJ	.
=46	=46	=46	=46	=46
4EE	8G#X'L	8e'L	4ee	.
.	(8B	(8g#X	.	.
8EE	8AJ	8f#XJ	16eLL	.
.	.	.	16eJJ	.
4AA	8G#L	8eL	4ee	.
.	8F#X	8d#X	.	.
8AA	8EJ)	8c#XJ)	16bLL	.
.	.	.	16bJJ	.
=47	=47	=47	=47	=47
!	!	!	!	!
4BB	(8D#XL	(8BL	8bbL	.
.	8E	8c#X	8r	.
8BB	8F#XJ	8d#XJ	8bbJ	.
8EE	8G)	8e)	8b 8gg#X 8eee	.
8r	8r	8r	8r	.
(8EE	16G#XLL	16eLL	8r	.
.	16G#JJ	16eJJ	.	.
=48	=48	=48	=48	=48
8BB) 8G#X	8G#X'L	8e'L	8g#X 8b 8ee	.
8r	(8G#	(8e	8r	.
8r	8F#XJ)	8d#XJ)	8r	.
4r	(8AL	(8f#XL	4r	.
.	8G#)	8e)	.	.
8EE	(8c#XJ	(8aJ	8r	.
=49	=49	=49	=49	=49
8BB 8G#X	8BL)	8g#XL)	8g#X 8b 8ee	.
8r	(8e	(8cc#X	8r	.
!	!	!	!	!
8r	8d#XJ	8bJ	8r	.
4r	8c#XL	8aL	4r	.
.	8B	8g#	.	.
16EELL	8AJ)	8f#XJ)	[8ee	.
16EEJJ	.	.	.	.
=50	=50	=50	=50	=50
8EE	8G#X'L	8e'L	8eeL]	.
8r	(8B	(8g#X	(8gg#X	.
16AALL	8AJ	8f#XJ	8ff#XJ	.
16AAJJ	.	.	.	.
8AA	8G#L	8eL	8eeL	.
8r	8F#X	8d#X	8dd#X	.
16BBLL	8EJ)	8c#XJ)	8cc#XJ)	.
16BBJJ	.	.	.	.
=51	=51	=51	=51	=51
!	!	!	!	!
8BBL	(8D#XL	(8BL	(8bL	.
8B	8E	8c#X	8cc#X	.
8BBJ	8F#XJ	8d#XJ 8e	8dd#XJ	.
8E	8E)	8e)	8ee)	.
8r	8r	8r	8r	.
16AALL 16E	16cLL	16eLL	16eLL	.
16AAJJ 16E	16cJJ	16eJJ	16eJJ	.
=52	=52	=52	=52	=52
!!linebreak:original
8AA 8E	8cL	8eL	8eL	.
8r	8c	8e	8a	.
8r	8BJ	8eJ	8g#XJ	.
4r	8dL	8fL	8bL	.
.	8c	8e	8a	.
16AALL 16E	8fJ	8g#XJ	8ddJ	.
16AAJJ 16E	.	.	.	.
=53	=53	=53	=53	=53
8AA 8E	8eL	8aL	8ccL	.
8r	8g#X	8dd	8ff	.
8r	8aJ	8ccJ	8eeJ	.
4r	8fL	8g#XL	8ddL	.
.	8e	8a	8cc	.
16AALL 16E	8dJ	8fJ	8bJ	.
16AAJJ 16E	.	.	.	.
=54	=54	=54	=54	=54
8AA'L 8E	8cL	8eL	8aL	.
8E'	8e	8a	8cc	.
8AA'J	8cJ	8eJ	8bJ	.
8DD'L	8dL	8fL	8aL	.
8D'	8A	8d	8g	.
8DD'J	8dJ	8dJ	8fJ	.
=55	=55	=55	=55	=55
4EE	8G#X'L	8B'L	[4.e	.
!	!LO:TX:a:i:t=cresc.	!	!	!
.	(8G#	(8B	.	.
!LO:TX:a:i:t=cresc.	!	!LO:TX:a:i:t=cresc.	!	!
16ELL	8AJ	8cJ	.	.
16EJJ	.	.	.	.
4E	8BL	8dL	4e]	.
.	8A	8c	.	.
16ELL	8G#J)	8BJ)	16eLL	.
16EJJ	.	.	16eJJ	.
=56	=56	=56	=56	=56
8AA 8E	8AL	8cL	8eL	.
8r	8c	8e	8a	.
8r	8BJ	8eJ	8g#XJ	.
4r	8dL	8fL	8bL	.
.	8c	8e	8a	.
16AALL 16E	8fJ	8g#XJ	8ddJ	.
16AAJJ 16E	.	.	.	.
=57	=57	=57	=57	=57
4AA 4E	8eL	8aL	8ccL	.
.	8g#X	8dd	8ff	.
16AALL 16E	8aJ	8ccJ	8eeJ	.
16AAJJ 16E	.	.	.	.
4AA 4E	8fL	8g#XL	8ddL	.
.	8e	8a	8cc	.
16AALL 16E	8dJ	8fJ	8bJ	.
16AAJJ 16E	.	.	.	.
=58	=58	=58	=58	=58
4AA 4E	8cL	8eL	8aL	.
.	8e	8a	8cc	.
8AA 8E	8cJ	8eJ	8bJ	.
8DD'L	8dL	8fL	8aL	.
8D'	8A	8d	8g	.
8DD'J	8dJ	8dJ	8fJ	.
=59	=59	=59	=59	=59
8EE'L	(8G#XL	(8BL	8e	.
8E'	8A	8c	8r	.
8EE'J	8BJ	8dJ	8e	.
8AA	8A)	8c)	8c 8e 8a	.
8r	8r	8r	8r	.
!	!	!	!	!
8r	8r	8r	[8g	.
=60||	=60||	=60||	=60||	=60||
!!linebreak:original
(4.G	(8BL	(8dL	4.g_	.
!	!	!	!	!
.	8c)	8e)	.	.
.	8d'J	8f'J	.	.
!	!	!	!	!
8C)	8c'	8e'	8gL]	.
8r	8r	8r	8b'	.
8r	8r	8r	8cc'J	.
=61	=61	=61	=61	=61
2.r	8D'	8f'	8a'L	.
.	8r	8r	8cc#X'	.
.	8r	8r	8dd'J	.
.	8F'	8d'	8f'L	.
.	8r	8r	8g#X'	.
.	8r	8r	8a'J	.
=62	=62	=62	=62	=62
(4.G	(8BL	(8dL	[4.g	.
.	8c)	8e)	.	.
.	8d'J	8f'J	.	.
8C)	8c'	8e'	8gL]	.
8r	8r	8r	8b'	.
8r	8r	8r	8cc'J	.
=63	=63	=63	=63	=63
2.r	8D'	8f'	8a'L	.
.	8r	8r	8cc#X'	.
.	8r	8r	8dd'J	.
.	8F'	8d'	8f'L	.
.	8r	8r	8g#X'	.
.	8r	8r	8a'J	.
=64	=64	=64	=64	=64
(4.G	(8BL	(8dL	[4.gn	.
.	8c)	8e)	.	.
.	8d'J	8f'J	.	.
8C)	8c'	8e'	8gL]	.
8r	8r	8r	8b'	.
8r	8r	8r	8cc'J	.
=65	=65	=65	=65	=65
(4.E	(8G#XL	(8BL	[4.e	.
.	8A)	8c)	.	.
.	8B'J	8d'J	.	.
8AA)	8A'	8c'	8eL]	.
8r	8r	8r	8g#X'	.
8r	8r	8r	8a'J	.
=66	=66	=66	=66	=66
(4.D	(8F#XL	(8AL	[4.d	.
.	8G)	8B)	.	.
.	8A'J	8c'J	.	.
8GGL)	8G'L	8B'L	8dL]	.
!	!	!	!	!
8AA'	8c'	8c'	8f#X'	.
8BB'J	8d'J	8d'J	8g'J	.
=67	=67	=67	=67	=67
8C'L	8c'L	8c'L	8e'L	.
8AA'	8c'	8e'	8a'	.
8D'J	8c'J	8d'J	8f#X'J	.
8GG'	8B'	8d'	8g'	.
8r	8r	8r	8r	.
8r	8r	8r	[8g	.
=68||	=68||	=68||	=68||	=68||
!	!	!	!	!
(4.GG	(8BL	(8dL	(4.g]	.
!	!	!	!	!
.	8c)	8e-X)	.	.
.	8d'J	8f'J	.	.
8G)	8c'	8e-'	8a-X'L)	.
8r	8r	8r	8cc'	.
8r	8r	8r	8b'J	.
=69	=69	=69	=69	=69
!!linebreak:original
2.r	2.r	2.r	8dd'L	.
.	.	.	8cc'	.
.	.	.	8ee-X'J	.
.	.	.	8dd'L	.
.	.	.	8ff'	.
.	.	.	8ee-'J	.
=70	=70	=70	=70	=70
(4.GG	(8cL	(8e-XL	(4.a-X	.
.	8d)	8f)	.	.
.	8e-X'J	8g'J	.	.
8G)	8d'	8f'	8b-X'L)	.
8r	8r	8r	8dd'	.
8r	8r	8r	8cc'J	.
=71	=71	=71	=71	=71
2.r	2.r	2.r	8ee-X'L	.
.	.	.	8dd'	.
.	.	.	8ff'J	.
.	.	.	8ee-'L	.
.	.	.	8gg'	.
.	.	.	8ff'J	.
=72	=72	=72	=72	=72
(4.G	(8fL	(8a-XL	(4.b	.
.	8e-X)	8g)	.	.
.	8d'J	8f'J	.	.
8c)	8c'	8e-X'	8ccL)	.
8r	8r	8r	8dd'	.
8r	8r	8r	8ee-X'J	.
=73	=73	=73	=73	=73
(4.E-X	(8d-XL	(8fL	(4.g	.
.	8c)	8e-X)	.	.
.	8B-X'J	8d-X'J	.	.
8A-X)	8A-X'	8c'	8a-XL)	.
8r	8r	8r	8b-X'	.
8r	8r	8r	8cc'J	.
=74	=74	=74	=74	=74
(4.AA-X	(8E-XL	(4.c	(4.f#X	.
.	8D)	.	.	.
.	8C'J	.	.	.
8GG)	8D'	8B)	8gL)	.
8r	8r	8r	8cc#X'	.
8r	8r	8r	8dd'J	.
=75	=75	=75	=75	=75
(4.AA-X	(8E-XL	(4.c	(4.f#X	.
.	8D)	.	.	.
.	8C'J	.	.	.
8GG)	8D'	8B)	8gL)	.
8r	8r	8r	8cc#X'	.
8r	8r	8r	8dd'J	.
=76	=76	=76	=76	=76
!	!	!	!	!
(4.G	(8BL	(8dL	[4.g	.
.	8c)	8e)	.	.
!	!	!	!	!
.	8d'J	8f'J	.	.
8C)	8c'	8e'	8gL]	.
8r	8r	8r	8b'	.
8r	8r	8r	8cc'J	.
=77	=77	=77	=77	=77
!LO:TX:a:t=pizz	!	!	!	!
8DD'	8D'	8f'	8a'L	.
8r	8r	8r	8cc#X'	.
8r	8r	8r	8dd'J	.
8D'	8F'	8d'	8f'L	.
8r	8r	8r	8g#X'	.
8r	8r	8r	8a'J	.
=78	=78	=78	=78	=78
!!linebreak:original
!LO:TX:a:t=arco	!	!	!	!
(4.G	(8BL	(8dL	[4.gn	.
.	8c)	8e)	.	.
.	8d'J	8f'J	.	.
8C)	8c'	8e'	8gL]	.
8r	8r	8r	8b'	.
8r	8r	8r	8cc'J	.
=79	=79	=79	=79	=79
8DD	8D'	8f'	8a'L	.
!LO:TX:a:t=pizz	!	!	!	!
8r	8r	8r	8cc#X'	.
8r	8r	8r	8dd'J	.
8D	8F'	8d'	8f'L	.
8r	8r	8r	8g#X'	.
8r	8r	8r	8a'J	.
=80	=80	=80	=80	=80
(4.G	(8BL	(8dL	[4.g	.
.	8c)	8e)	.	.
.	8d'J	8f'J	.	.
!LO:TX:a:t=arco	!	!	!	!
8C)	8c'	8e'	8gL]	.
8r	8r	8r	8b'	.
8r	8r	8r	8cc'J	.
=81	=81	=81	=81	=81
4.C	4.B-X	4.c 4.g	4.e 4.cc	.
[4.FF [4.C	[4.C [4.A	[4.c [4.a	[4.f [4.cc [4.aa	.
=82	=82	=82	=82	=82
4.FF] 4.C]	4.C] 4.A]	4.c] 4.a]	8fL] 8cc] 8aa]	.
.	.	.	8ff'	.
.	.	.	8cc'J	.
!	!	!	!	!
4r	4r	4r	8a'L	.
.	.	.	8f'	.
8r	8r	8r	8c'J	.
=83	=83	=83	=83	=83
4.GG	4.G	4.G 4.d	4.B 4.g	.
[4.CC [4.GG	[4.C [4.G	[4.G [4.e	[4.c [4.g [4.ee	.
=84	=84	=84	=84	=84
4.CC] 4.GG]	4.C] 4.G]	4.G] 4.e]	8cL] 8g] 8ee]	.
.	.	.	8cc'	.
.	.	.	8g'J	.
4r	4r	4r	8e'L	.
.	.	.	8c'J	.
16AALL 16E	16cLL	16eLL	16eLL	.
16AAJJ 16E	16cJJ	16eJJ	16eJJ	.
=85	=85	=85	=85	=85
8AA 8E	8c	8e	8e	.
8r	8r	8r	8r	.
8r	8r	8r	8r	.
4r	4r	4r	4r	.
16AALL 16E	16cLL	16eLL	16eLL	.
16AAJJ 16E	16cJJ	16eJJ	16eJJ	.
=86	=86	=86	=86	=86
8AA 8E	8c	8e	8e	.
8r	8r	8r	8r	.
8r	8r	8r	8r	.
4r	4r	4r	4r	.
16AALL 16E	16cLL	16eLL	16eLL	.
16AAJJ 16E	16cJJ	16eJJ	16eJJ	.
=87||	=87||	=87||	=87||	=87||
8AA 8E	8cL	8eL	8eL	.
8r	8c	8e	8a	.
8r	8BJ	8eJ	8g#XJ	.
4r	8dL	8fL	8bL	.
.	8c	8e	8a	.
16AALL 16E	8fJ	8g#XJ	8ddJ	.
16AAJJ 16E	.	.	.	.
=88	=88	=88	=88	=88
!!linebreak:original
8AA 8E	8eL	8aL	8ccL	.
8r	8g#X	8dd	8ff	.
8r	8aJ	8ccJ	8eeJ	.
4r	8fL	8g#XL	8ddL	.
.	8e	8a	8cc	.
16AALL 16E	8dJ	8fJ	8bJ	.
16AAJJ 16E	.	.	.	.
=89	=89	=89	=89	=89
8AAL 8E	8cL	8eL	8aL	.
8r	8c	8e	8cc	.
8AAJ 8E	8cJ	8eJ	8bJ	.
8DL	8dL	8fL	8aL	.
8r	8A	8d	8g	.
8DJ	8AJ	8dJ	8fJ	.
=90	=90	=90	=90	=90
8E	8G#X'L	8B'L	[4.e	.
8r	(8G#	(8B	.	.
!	!	!	!	!
8r	8AJ	8cJ	.	.
4r	8BL	8dL	4e]	.
!	!	!	!	!
.	8A	8c	.	.
!	!	!	!	!
16ELL	8G#J)	8BJ)	16eLL	.
16EJJ	.	.	16eJJ	.
=91	=91	=91	=91	=91
8AA 8E	8AL	8cL	8eL	.
8r	8c	8e	8a	.
8r	8BJ	8eJ	8g#XJ	.
4r	8dL	8fL	8bL	.
.	8c	8e	8a	.
16AALL 16E	8fJ	8g#XJ	8ddJ	.
16AAJJ 16E	.	.	.	.
=92	=92	=92	=92	=92
8AA 8E	8eL	8aL	8ccL	.
8r	8g#X	8dd	8ff	.
8r	8aJ	8ccJ	8eeJ	.
4r	8fL	8g#XL	8ddL	.
.	8e	8a	8cc	.
16AALL 16E	8dJ	8fJ	8bJ	.
16AAJJ 16E	.	.	.	.
=93	=93	=93	=93	=93
8AAL 8E	8cL	8eL	8aL	.
8r	8c	8e	8cc	.
8AAJ	8cJ	8eJ	8bJ	.
8DDL	8dL	8fL	8aL	.
8AA	8A	8d	8g	.
8DDJ	8AJ	8dJ	8fJ	.
=94	=94	=94	=94	=94
8EEL	(8G#XL	(8BL	4e	.
8E	8A	8c	.	.
8EEJ	8BJ	8dJ	8e	.
8AA	8A)	8c)	4a	.
8r	8r	8r	.	.
16EELL	16GnLL	16eLL	16eLL	.
16EEJJ	16GJJ	16eJJ	16eJJ	.
=95||	=95||	=95||	=95||	=95||
4.EE	8G#XL	8eL	4.ee	.
.	(8G#	(8e	.	.
.	8F#XJ)	8d#XJ)	.	.
4r	(8AL	(8f#XL	4r	.
.	8G#)	8e)	.	.
16EELL	(8c#XJ	(8aJ	16eLL	.
16EEJJ	.	.	16eJJ	.
=96	=96	=96	=96	=96
4.EE	8BL)	8g#XL)	4.ee	.
.	(8e	(8cc#X	.	.
.	8d#XJ	8bJ	.	.
!	!	!	!	!
4r	8c#XL	8aL	4r	.
.	8B	8g#	.	.
16EELL	8AJ)	8f#XJ)	16eLL	.
16EEJJ	.	.	16eJJ	.
=97	=97	=97	=97	=97
!!linebreak:original
4EE	8G#X'L	8e'L	4ee	.
.	(8B	(8g#X	.	.
8EE	8AJ	8f#XJ	16eLL	.
.	.	.	16eJJ	.
4AA	8G#L	8eL	4ee	.
.	8F#X	8d#X	.	.
8AA	8EJ)	8c#XJ)	16bLL	.
.	.	.	16bJJ	.
=98	=98	=98	=98	=98
4BB	(8D#XL	(8BL	8bbL	.
.	8E	8c#X	8r	.
8BB	8F#XJ	8d#XJ	8bbJ	.
4EE	8G#XL)	8e)	8b 8gg#X 8eee	.
.	8r	8r	8r	.
(8EE	16G#L	16eLL	8r	.
.	16G#JJ	16eJJ	.	.
=99	=99	=99	=99	=99
8BB) 8G#X	8G#X'L	8e'L	8g#X 8b 8ee	.
8r	(8G#	(8e	8r	.
8r	8F#XJ)	8d#XJ)	8r	.
4r	(8AL	(8f#XL	4r	.
.	8G#)	8e)	.	.
(8EE	(8c#XJ	(8aJ	8r	.
=100	=100	=100	=100	=100
8BB) 8G#X	8BL)	8g#XL)	8g#X 8b 8ee	.
8r	(8e	(8cc#X	8r	.
8r	8d#XJ	8bJ	8r	.
4r	8c#XL	8aL	4r	.
.	8B	8g#	.	.
16EELL	8AJ)	8f#XJ)	[8ee	.
16EEJJ	.	.	.	.
=101	=101	=101	=101	=101
4EE	8G#X'L	8e'L	8eeL]	.
.	(8B	(8g#X	(8gg#X	.
16AALL	8AJ	8f#XJ	8ff#XJ	.
16AAJJ	.	.	.	.
4AA	8G#L	8eL	8eeL	.
.	8F#X	8d#X	8dd#X	.
16BBLL	8EJ)	8c#XJ)	8cc#XJ)	.
16BBJJ	.	.	.	.
=102	=102	=102	=102	=102
8BBL	(8D#XL	(8BL	(8bL	.
8B	8E	8c#X	8cc#X	.
8BBJ	8F#XJ	8d#XJ	8dd#XJ	.
8E	8E)	8e)	8ee)	.
8r	8r	8r	8r	.
16AALL 16E	16cLL	16eLL	16eLL	.
16AAJJ 16E	16cJJ	16eJJ	16eJJ	.
=103	=103	=103	=103	=103
8AA 8E	8cL	8eL	8eL	.
8r	8c	8e	8a	.
8r	8BJ	8eJ	8g#XJ	.
4r	8dL	8fL	8bL	.
.	8c	8e	8a	.
16AALL 16E	8fJ	8g#XJ	8ddJ	.
16AAJJ 16E	.	.	.	.
=104	=104	=104	=104	=104
8AA 8E	8eL	8aL	8ccL	.
8r	8g#X	8dd	8ff	.
8r	8aJ	8ccJ	8eeJ	.
4r	8fL	8g#XL	8ddL	.
.	8e	8a	8cc	.
16AALL 16E	8dJ	8fJ	8bJ	.
16AAJJ 16E	.	.	.	.
=105	=105	=105	=105	=105
8AA'L 8E	8cL	8eL	8aL	.
8E'	8e	8a	8cc	.
8AA'J	8cJ	8eJ	8bJ	.
8DD'L	8dL	8fL	8aL	.
8D'	8A	8d	8g	.
8DD'J	8dJ	8dJ	8fJ	.
=106	=106	=106	=106	=106
!!linebreak:original
4EE	8G#X'L	8B'L	[4.e	.
.	(8G#	(8B	.	.
16ELL	8AJ	8cJ	.	.
16EJJ	.	.	.	.
4E	8BL	8dL	4e]	.
.	8A	8c	.	.
16ELL	8G#J)	8BJ)	16eLL	.
16EJJ	.	.	16eJJ	.
=107	=107	=107	=107	=107
8AA 8E	8AL	8cL	8eL	.
8r	8c	8e	8a	.
8r	8BJ	8eJ	8g#XJ	.
4r	8dL	8fL	8bL	.
.	8c	8e	8a	.
16AALL 16E	8fJ	8g#XJ	8ddJ	.
16AAJJ 16E	.	.	.	.
=108	=108	=108	=108	=108
8AA 8E	8eL	8aL	8ccL	.
8r	8g#X	8dd	8ff	.
16AALL 16E	8aJ	8ccJ	8eeJ	.
16AAJJ 16E	.	.	.	.
8AA 8E	8fL	8g#XL	8ddL	.
8r	8e	8a	8cc	.
16AALL 16E	8dJ	8fJ	8bJ	.
16AAJJ 16E	.	.	.	.
=109	=109	=109	=109	=109
8AAL 8E	8cL	8eL	8aL	.
8r	8e	8a	8cc	.
8AAJ 8E	8cJ	8eJ	8bJ	.
8DD'L	8dL	8fL	8aL	.
8D'	8A	8d	8g	.
8DD'J	8dJ	8dJ	8fJ	.
=110	=110	=110	=110	=110
(4.EE	(8G#XL	(8BL	(4.e	.
.	8A	8c	.	.
.	8BJ)	8dJ)	.	.
8AA)	8A	8c	8AL)	.
8r	8r	8r	8g#X	.
8r	8r	8r	8aJ	.
=111	=111	=111	=111	=111
(4.EE	(8G#XL	(8BL	(4.e	.
.	8A	8c	.	.
.	8BJ)	8dJ)	.	.
8AA)	8A	8c	8AL)	.
8r	8r	8r	8b	.
8r	8r	8r	8ccJ	.
=112	=112	=112	=112	=112
(4.EE	(8G#XL	(8BL	(4.e	.
.	8A	8c	.	.
.	8BJ)	8dJ)	.	.
8AA)	8A	8c	8AL)	.
8r	8r	8r	8ee'	.
8r	8r	8r	8e'J	.
=113	=113	=113	=113	=113
4r	4r	4r	8aa'L	.
.	.	.	8a'	.
8r	8r	8r	8ccc'J	.
8E'L	8c'L 8e	8a'L	8cc'L	.
8E'	8c' 8e	8cc'	8eee'	.
8E'J	8c'J 8e	8ee'J	8ee'J	.
=114	=114	=114	=114	=114
8AA 8E 8c	8c 8e 8a	8e 8cc 8aa	8aaa	.
8r	8r	8r	8r	.
8r	8r	8r	8r	.
==	==	==	==	==
*-	*-	*-	*-	*-
!!!system-decoration: [(s1,s2,s3,s4)]
